img/card-pic-02.svg

<svg width="19" height="20" viewBox="0 0 19 20" fill="none" xmlns="http://www.w3.org/2000/svg">
<path fill-rule="evenodd" clip-rule="evenodd" d="M3.20256 13.4397C4.25472 14.2928 5.45998 14.7038 6.65388 14.7063C7.06425 16.0045 7.81001 17.1753 8.86212 18.0284C11.5972 20.2458 15.3668 19.4762 17.2818 16.3093C19.1969 13.1425 18.5323 8.77768 15.7972 6.56024C14.745 5.70719 13.5398 5.29621 12.3459 5.29371C11.9355 3.99552 11.1898 2.82467 10.1376 1.97161C7.40263 -0.245828 3.633 0.523808 1.71794 3.69064C-0.197123 6.85748 0.467563 11.2223 3.20256 13.4397ZM4.19328 11.8014C4.83765 12.3239 5.56242 12.6142 6.29353 12.6875C6.21905 11.1725 6.56754 9.61873 7.37754 8.27927C8.18755 6.9398 9.32935 6.0292 10.5843 5.59209C10.2748 4.82166 9.79122 4.13235 9.14686 3.60992C7.19333 2.02603 4.50074 2.57577 3.13284 4.8378C1.76494 7.09982 2.23971 10.2176 4.19328 11.8014ZM14.8065 8.19854C14.1622 7.67611 13.4374 7.38581 12.7063 7.31251C12.7807 8.82747 12.4322 10.3813 11.6222 11.7207C10.8122 13.0602 9.67049 13.9708 8.4155 14.4079C8.72506 15.1783 9.20853 15.8676 9.85289 16.3901C11.8064 17.9739 14.4991 17.4242 15.8669 15.1622C17.2348 12.9002 16.7601 9.78243 14.8065 8.19854Z" fill="#02291C"/>
</svg>

<svg width="19" height="20" fill="none" xmlns="http://www.w3.org/2000/svg"><path fill-rule="evenodd" clip-rule="evenodd" d="M3.203 13.44c1.052.853 2.257 1.264 3.45 1.266.411 1.299 1.157 2.47 2.21 3.322 2.734 2.218 6.504 1.448 8.419-1.719 1.915-3.167 1.25-7.531-1.485-9.749-1.052-.853-2.257-1.264-3.451-1.266-.41-1.298-1.156-2.47-2.208-3.322C7.403-.246 3.633.524 1.718 3.69-.197 6.857.468 11.222 3.203 13.44Zm.99-1.639a3.95 3.95 0 0 0 2.1.886c-.074-1.514.275-3.068 1.085-4.408.81-1.34 1.951-2.25 3.206-2.687A4.874 4.874 0 0 0 9.147 3.61C7.193 2.026 4.5 2.576 3.133 4.838 1.765 7.1 2.24 10.218 4.193 11.8ZM14.807 8.2a3.95 3.95 0 0 0-2.1-.886c.074 1.514-.275 3.068-1.085 4.408-.81 1.34-1.952 2.25-3.207 2.687.31.77.794 1.46 1.438 1.982 1.953 1.584 4.646 1.034 6.014-1.228 1.368-2.262.893-5.38-1.06-6.963Z" fill="#02291C"/></svg>
